X:1
T:27. Vit og Tru
T:27. Vit og Tru
T:Symra
T:Chr. Haslerud
T:Ivar Aasen
C:Chr. Haslerud
Z:Ivar Aasen
%%score [ 1 2 3 4 ]
L:1/8
Q:1/4=52
M:6/8
K:Ab
V:1 treble nm="Soprano"
V:2 treble nm="Alto"
V:3 treble-8 nm="Tenor"
V:4 bass nm="Bass"
V:1
!p!"^Langsomt" C | A2 A G c =E | F2 D C z =E | F2 G A G F | G3 C z C | A2 A G c =E | %6
w: Me|höy- ra stund- om so|stort eit Ord um|alt, som Folk tyk- kjast|vi- ta, um|Liv og Lag- nad, um|
!<(! F A B!<)! c z e | f2 f e d c | B3 A z z | z6 | z6 | z6 | z2 z2 z C | (F>G) A A G F | %14
w: Him- mel og Jord og|alt, som Man- nen kann|gi- ta||||Eg|ot- * tast, alt, som me|
 A2 B c z f | f =e f d c B | A2 G F2 |] %17
w: vi- ta fullt, er|li- tet mot alt, som fyr'|oss er dult.|
V:2
!p! C | F2 F =E E C | C2 B, G, z C | C2 =E F E F | =E3 C z C | F2 F =E E C | %6
w: Me|höy- ra stund- om so|stort eit Ord um|alt, som Folk tyk- kjast|vi- ta, um|Liv og Lag- nad, um|
!<(! C F F!<)! =E z _E | (DF) A A G A | G3 E z z | z6 | z6 | z6 | z2 z2 z C | C2 C =E E F | %14
w: Him- mel og Jord og|alt, _ som Man- nen kann|gi- ta||||Eg|ot- tast, alt, som me|
 F2 F G z A | B B A G A F | F2 =E C2 |] %17
w: vi- ta fullt, er|li- tet mot alt, som fyr'|oss er dult.|
V:3
!p! c | c2 c B B G | A2 F =E z G | A2 B c B A | c3 c z c | c2 c B B G |!<(! A c F!<)! G z A | %7
w: Me|höy- ra stund- om so|stort eit Ord um|alt, som Folk tyk- kjast|vi- ta, um|Liv og Lag- nad, um|Him- mel og Jord og|
 A2 d c e e | (e2 d) c z z | z6 | z6 | z6 | z2 z2 z c | (A>G) F c c c | c2 f =e z c | c c c B A d | %16
w: alt, som Man- nen kann|gi- * ta||||Eg|ot- * tast, alt, som me|vi- ta fullt, er|li- tet mot alt, som fyr'|
 c2 B A2 |] %17
w: oss er dult.|
V:4
!p! C | F,2 F, C, C, B,, | A,,2 B,, C, z B,, | A,,2 G,, F,, C, D, | C,3 C, z C | F,2 F, C, C, B,, | %6
w: Me|höy- ra stund- om so|stort eit Ord um|alt, som Folk tyk- kjast|vi- ta, um|Liv og Lag- nad, um|
!<(! A,, F, D,!<)! C, z C, | D,2 F, A, B, A, | E,3 A, z"^Bas Solo" C | (CG,) A, F, G, G, | %10
w: Him- mel og Jord og|alt, som Man- nen kann|gi- ta Eg|ot- * tast alt, som me|
 G,2 =E, C, z C | C G, A, F, G, A, | G,2 =E, C, z C | (F,>=E,) F, B, B, A, | F,2 D C z A, | %15
w: vi- ta fullt er|li- tet mot alt, som fyr'|oss er dult. Eg|ot- * tast, alt, som me|vi- ta fullt, er|
 G, G, A, =E, F, B,, | C,2 C, F,2 |] %17
w: li- tet mot alt, som fyr'|oss er dult.|

